X:32
T:Quick Step. WHG.032
T:Le Garcon Volage,aka. WHG.032
T:Dingle’s Regatta,aka. WHG.032
R:jig
S:W.H.Giles MS,Bampton,Oxfordshire,1839p29
O:England
H:donated by Mrs W.R.Kettlewell to VWML,Apr 1927.
A:Bampton, Oxfordshire
C:”June 2nd/41 12 oclock at Night”
N:At title level, on the right, is written:
N:June 2nd/41 12 oclock at Night. Last bar of
N:A-music is |G2 G2:| in MS.
Z:PJHeadford – VMP 2009
M:6/8
L:1/8
Q:3/8=120
K:G
|:B/c/|d2d e2d|B2B d2c|A2A AGA|B3 GBc|
d2d e2d|B2B d2c|A2A AGF|G3 G2:|
g|f2d fef|g3 d2B|cec BdB|AFD D2g|
fef d>ef|g3 efg|fed ed^c|” sic”g3 g2″^DC”|]

